!!!OTL: Abendlied.
!!!OTL-incipit:SCHON HAT SICH DUNKLE NACHT GESENKT
!!!ARE: Europa, Mitteleuropa, Deutschland
!!!SCT: F0149
!!!TXL: @@DE
!!!YEM: Copyright 1995, estate of Helmut Schaffrath.
**kern	**text
*ICvox	*
*M6/4	*
*k[f#]	*
*e:	*
!LO:TX:a:t=Schwermüthig.	!
!LO:TX:a:t=Ges. v. H. Langer	!
{4b	Schon
=1	=1
2e	hat
4e	sich
2b	dunk-
4b	-le
=2	=2
2a	Nacht
4g	ge-
2g}	-senkt
{4g	auf
=3	=3
(4f#	un-
4d#)	.
4B	-sre
(4c	stil-
4B)	.
4d#	-le
=4	=4
2e	Flur.
4r	.
4r	.
4r}	.
{4g	Im
=5	=5
(4dd	Mon-
4b)	.
4g	-den-
(4dd	-schim-
4b)	.
4g	-mer
=6	=6
2cc	kaum
4a	er-
2f#}	-glüht
{4d	das
=7	=7
2g	Laub
4b	des
2a	Hei-
4dd	-nes
=8	=8
2g	nur
4r	.
4r	.
4r}	.
{4b	zu
=9	=9
2b	sin-
4f#	-gen
(4g	mei-
4f#)	.
4e	-ne
=10	=10
2.d#	Lei-
2f#}	-den
{4b	er-
=11	=11
2b	-klin-
4f#	-get
2g	Sei-
4a#	-ten
=12	=12
2b	ihr,
4r	.
4r	.
4r}	.
{4b	du
=13	=13
2cc	Mond,
4cc	o
2cc	Freund
4cc	der
=14	=14
2.b	Schwermuth,
2e}	.
{4a	o
=15	=15
(4g	trau-
4a)	.
4f#	-re
(4e	still
4f#)	.
4d#	mit
=16	=16
(2.e	mir.
4e)	.
4r}	.
==	==
!!!Ag: Tageszeiten - Lied, Abend; Trauer
!!!ONB: ESAC (Essen Associative Code) Database: FINK
!!!AMT: compound duple
!!!AIN: vox
!!!EED: Helmut Schaffrath
!!!EEV: 1.0
!!!source: Musikalischer Hausschatz der Deutschen. Eine Sammlung von über 1000 Liedern und Gesängen mit Singstimmen und Klavierbegleitung. Leipzig, Litterarisches Verlags-Haus.
!!!page: 87
!!!ENC: Anna Maria Matuszewska
!!!EEV: 2025/03/11
*-	*-
